raw-svg/file-plus.svg

<svg fill="none" height="24" viewBox="0 0 24 24" width="24" xmlns="http://www.w3.org/2000/svg"><path clip-rule="evenodd" d="m8 3.25c-1.51421 0-2.75 1.23579-2.75 2.75v12c0 1.5142 1.23579 2.75 2.75 2.75h8c1.5142 0 2.75-1.2358 2.75-2.75v-8.5c0-.19891-.079-.38968-.2197-.53033l-5.5-5.5c-.1406-.14065-.3314-.21967-.5303-.21967zm-1.25 2.75c0-.68579.56421-1.25 1.25-1.25h3.75v4.75c0 .41421.3358.75.75.75h4.75v7.75c0 .6858-.5642 1.25-1.25 1.25h-8c-.68579 0-1.25-.5642-1.25-1.25zm9.4393 2.75-2.9393-2.93934v2.93934zm-.9393 6.25c0 .4142-.3358.75-.75.75h-1.75v1.75c0 .4142-.3358.75-.75.75s-.75-.3358-.75-.75v-1.75h-1.75c-.41421 0-.75-.3358-.75-.75s.33579-.75.75-.75h1.75v-1.75c0-.4142.3358-.75.75-.75s.75.3358.75.75v1.75h1.75c.4142 0 .75.3358.75.75z" fill="#000" fill-rule="evenodd"/></svg>

<svg width="24" height="24" viewBox="0 0 24 24" fill="none" xmlns="http://www.w3.org/2000/svg">
<path fill-rule="evenodd" clip-rule="evenodd" d="M8 3.25C6.48579 3.25 5.25 4.48579 5.25 6V18C5.25 19.5142 6.48579 20.75 8 20.75H16C17.5142 20.75 18.75 19.5142 18.75 18V9.5C18.75 9.30109 18.671 9.11032 18.5303 8.96967L13.0303 3.46967C12.8897 3.32902 12.6989 3.25 12.5 3.25H8ZM6.75 6C6.75 5.31421 7.31421 4.75 8 4.75H11.75V9.5C11.75 9.91421 12.0858 10.25 12.5 10.25H17.25V18C17.25 18.6858 16.6858 19.25 16 19.25H8C7.31421 19.25 6.75 18.6858 6.75 18V6ZM16.1893 8.75L13.25 5.81066V8.75H16.1893ZM15.25 15C15.25 15.4142 14.9142 15.75 14.5 15.75H12.75V17.5C12.75 17.9142 12.4142 18.25 12 18.25C11.5858 18.25 11.25 17.9142 11.25 17.5V15.75H9.5C9.08579 15.75 8.75 15.4142 8.75 15C8.75 14.5858 9.08579 14.25 9.5 14.25H11.25V12.5C11.25 12.0858 11.5858 11.75 12 11.75C12.4142 11.75 12.75 12.0858 12.75 12.5V14.25H14.5C14.9142 14.25 15.25 14.5858 15.25 15Z" fill="black"/>
</svg>
